!!!COM:	Tinctoris, Johannes
!!!CDT:	~1435///-1511//
!!!OPR:	Missa Sine nomine i
!!!ONM:	1
!!!OTL:	Kyrie
!!!AGN:	Mass; Kyrie
!!!SCT:	Tin1002a
!!!SCA:	Tin1002a
!!!voices:	3
!!!voices-OPR:	3
**kern	**kern	**kern
*staff3	*staff2	*staff1
*Ivox	*Ivox	*Ivox
*I"Bassus	*I"Tenor	*I"Altus
*I'B	*I'T	*I'A
*>[A,B,C]	*>[A,B,C]	*>[A,B,C]
*>A	*>A	*>A
*clefF4	*clefF4	*clefGv2
*k[b-e-]	*k[b-e-]	*k[b-e-]
*M3/1	*M3/1	*M3/1
*met(O)	*met(O)	*met(O)
!!section: Kyrie I
!!!OMD: Kyrie I
=1-	=1-	=1-
2.C/	1.C	0c
4BB-/	.	.
4AA/	.	.
4FF/	.	.
2C/	2E-\	.
1GG	1D	1B-
=2	=2	=2
2.CC/	2C/	1.c
.	1E-	.
2CC/	.	.
4EE-/	.	.
2DD/	2F\	2d\
[1CC	1G	2.e-\
.	.	8d\L
.	.	8c\J
=3	=3	=3
2CC/]	0G	2e-\
2.GG/	.	2.d\
4AA/	.	4c\
4BB-/	.	2B-\
4C/	.	.
1D	1F#i	1A
=4	=4	=4
4.GG/	2.G\	2r
8AA/	.	.
4BB-/	.	2.G/
2C/	4C/	.
.	4E-\	.
4FF/	4F\	4A/
2GG/	2D\	4B-\
.	.	8A/L
.	.	8B-/J
2AA-/	2C/	2c\
4GG/	4D\	4B-\
[4CC/	[4E-\	[4G/
=5	=5	=5
8CC/L]	8E-\L]	4G/]
8DD/	8D\J	.
8EE-/	4C/	8F/L
8FF/J	.	8E-/J
2GG/	2BBni/	2D/
1CC	1C	4r
.	.	4C/
.	.	2E-/
2GG/	2BB/	2D/
[2CC/	4r	2C/
.	4C/	.
=6	=6	=6
2CC/]	2E-\	4G/
.	.	4A/
2GG/	2D\	2B-\
4r	2.C/	1c
4CC/	.	.
2EE-/	.	.
.	4AA/	.
2DD/	2BB-/	2d\
2CC/	[2C/	[2e-\
=7	=7	=7
2.C/	4C/]	4e-\]
.	4D\	4f\
.	4E-\	4e-\
8BB-/L	4F\	8d\L
8AA/J	.	8c\J
4GG/	4G\	4B-\
4C/	4E-\	2c\
4FF/	2F\	.
2BB-/	.	2d\
.	4D\	.
4C/	4E-\	2c\
2AA/	2F\	.
.	.	4A/
=8	=8	=8
0.GG;	0.D; 0.G;	0.B-;
=9	=9	=9
1CC	1G	1e-
2DD/	2F\	2d\
2EE-/	2E-\	2.c\
2FF/	1D	.
.	.	8B-/L
.	.	8A/J
2GG/	.	2B-\
=10	=10	=10
4.AA-/	2.C/	4r
.	.	2E-/
8BB-/	.	.
4C/	.	.
2BB-/	4.D\	2F/
.	8C/	.
8AA-/L	4BB-/	4G/
8GG/J	.	.
2FF/	4C/	4A/
.	8BB-/L	8G/L
.	8AA/J	8A/J
2GG/	4GG/	4B-\
.	4BB-/	2G/
2DD/	2AA/	.
.	.	4F#i/
=11	=11	=11
4EE-/	2r	0.G
2CC/	.	.
.	2.GG/	.
4DD/	.	.
2EE-/	.	.
.	4AA/	.
4FF/	2BB-/	.
2GG/	.	.
.	2C/	.
2CC/	.	.
.	2GG/	.
4DD/	.	.
=12	=12	=12
4EE-/	4r	0.r
2FF/	2AA/	.
4.GG/	2BB-/	.
8FF/	.	.
4EE-/	4C/	.
4FF/	4D\	.
8EE-/L	8C/L	.
8DD/J	8D/J	.
4CC/	4E-\	.
4EE-/	2C/	.
2DD/	.	.
.	4BBni/	.
=13	=13	=13
1CC	1C	1E-
2GG/	2r	2D/
1AA	1C	4C/
.	.	2E-/
.	.	4F/
2GG/	2BB-/	2G/
=14	=14	=14
4r	4C/	4A/
4GG/	4D\	2B-\
2EE-/	2E-\	.
.	.	4c\
2DD/	2F\	2d\
2CC/	2.G\	2.e-\
2C/	.	.
.	4F\	4d\
[2BB-/	[2D\	[2f\
=15	=15	=15
4BB-/]	4D\]	4f\]
4C/	4E-\	4e-\
2D\	2F\	4d\
.	.	4c\
1C	2G\	2e-\
.	2E-\	4d\
.	.	2c\
1GG	1D	.
.	.	8Bni/L
.	.	8A/J
.	.	2Bni\
=16	=16	=16
0.CCl	0.Cl	0.cl
!!LO:LB:i:g=z
=17||	=17||	=17||
*>B	*>B	*>B
*clefF4	*clefF4	*clefGv2
*k[b-e-]	*k[b-e-]	*k[b-e-]
*M2/1	*M2/1	*M2/1
*met(C|)	*met(C|)	*met(C|)
!!section: Christe
!!!OMD: Christe
[0CC	[0C	0c
=18	=18	=18
0CC]	0C_	1c
.	.	2G/
.	.	[2c\
=19	=19	=19
1FF	0C_	4c\]
.	.	4B-\
.	.	2A/
2.EE-/	.	2.G/
4DD/	.	4F/
=20	=20	=20
2FF/	0C]	2A-/
2.CC/	.	2.G/
4DD/	.	4F/
4EE-/	.	2E-/
4FF/	.	.
=21	=21	=21
1GG	0BB-	0D
2r	.	.
[2GG/	.	.
=22	=22	=22
4GG/]	2.GG/	2r
4AA/	.	.
4BB-/	.	2.D/
4C/	4AA/	.
[1D	2.BB-/	.
.	.	4E-/
.	.	2F/
.	4C/	.
=23	=23	=23
2D\]	1.D	2G/
1F	.	2A/
.	.	2B-\
2E-\	2E-\	2c\
=24	=24	=24
2D\	2F\	2d\
2C/	1G	2e-\
2GG/	.	2d\
[2D\	2F\	[2f\
=25	=25	=25
4D\]	1D	4f\]
4E-\	.	4e-\
2F\	.	4d\
.	.	4c\
2C/	2.G\	2e-\
2GG/	.	[2d\
.	4F\	.
=26	=26	=26
2r	2G\	4d\]
.	.	4G/
2CC/	2E-\	1c
1GG	1D	.
.	.	2Bni\
=27	=27	=27
2.CC/	[0C	0c
4DD/	.	.
2EE-/	.	.
2FF/	.	.
=28	=28	=28
2CC/	1C]	2r
2FF/	.	2.c\
2.FF/	2r	.
.	.	4B-\
.	[2F\	[2A/
4GG/	.	.
=29	=29	=29
2AA/	4F\]	4A/]
.	4E-\	4G/
2BB-/	2.D\	2F/
2C/	.	2En/
.	4C/	.
2GG/	2BB-/	2G/
=30	=30	=30
2C/	2AA/	1C
2FF/	2C/	.
2.AA/	1FF	2r
.	.	2C/
4BB-/	.	.
=31	=31	=31
1.C	2r	2E-/
.	2FF/	1F
.	2AA/	.
2BB-/	2BB-/	2G/
=32	=32	=32
2AA/	2C/	2A/
2GG/	2D\	2B-\
2r	2E-\	2c\
2D\	2F\	[2d\
=33	=33	=33
2BB-/	2D\	4d\]
.	.	4c\
2GG/	1G	2B-\
1D	.	1A
.	2F#i\	.
=34	=34	=34
2r	1G	1G
2GG/	.	.
1AA	1C	1r
=35	=35	=35
1BB-	0r	1d
1C	.	1e-
=36	=36	=36
2BB-/	1D	1f
2D\	.	.
1C	1E-	1g
=37	=37	=37
1D	1F	2f\
.	.	2d\
1C	1G	4e-\
.	.	4d\
.	.	4c\
.	.	4B-\
=38	=38	=38
2D\	2F\	1A
2F\	2D\	.
1C	4E-\	2G/
.	4D\	.
.	4C/	[2G/
.	4BB-/	.
=39	=39	=39
2r	1AA	2G/]
2C/	.	2F#i/
2BB-/	1GG	1G
2GG/	.	.
=40	=40	=40
4AA/	2r	1c
4GG/	.	.
4FF/	1C	.
4EE-/	.	.
1DD	.	2r
.	2BB-/	2d\
=41	=41	=41
1CC	2C/	2e-\
.	2E-\	1c
1GG	1D	.
.	.	2Bni\
=42	=42	=42
0CCl	0Cl	0cl
!!LO:LB:i:g=z
=43||	=43||	=43||
*>C	*>C	*>C
*clefF4	*clefF4	*clefGv2
*k[b-e-]	*k[b-e-]	*k[b-e-]
*M3/1	*M3/1	*M3/1
*met(O|)	*met(O|)	*met(O|)
!!section: Kyrie II
!!!OMD: Kyrie II
0CC	[0.C	1.c
.	.	2B-\
1FF	.	2.A/
.	.	4G/
=44	=44	=44
2.CC/	0.C]	1.G
4DD/	.	.
1EE-	.	.
.	.	4F/
.	.	4G/
1FF	.	4A/
.	.	4G/
.	.	4F/
.	.	4E-/
=45	=45	=45
1GG	1BB-	1D
1EE-	2.C/	2E-/
.	.	1C
.	4D\	.
[1C	4E-\	.
.	4F\	.
.	[2G\	[2e-\
=46	=46	=46
2C/]	2G\]	4e-\]
.	.	4d\
1.FF	2.A-\	2.f\
.	4G\	4e-\
.	4F\	4d\
.	4E-\	4c\
1GG	1D	2.Bni\
.	.	4A/
=47	=47	=47
2r	2C/	0c
2.AA-/	2.C/	.
4GG/	4BB-/	.
2FF/	2AA/	.
2.EEni/	1GG	1r
4DD/	.	.
=48	=48	=48
1FF	2r	0.r
.	1FF	.
0DD	.	.
.	1AA	.
.	2BB-/	.
=49	=49	=49
1CC	3%2CV	0.r
.	3D\Z	.
1C	3E-\V	.
.	3F\	.
.	3G\Z	.
1FF	3A-\V	.
.	3G\	.
.	3F\Z	.
=50	=50	=50
1C	2G\	0.r
.	2E-\	.
2AA/	2C/	.
2FF/	1F	.
1GG	.	.
.	2Eni\	.
=51	=51	=51
0FF	1F	0A
.	2r	.
.	2.F\	.
1AA	.	1c
.	4E-\	.
.	2F\	.
=52	=52	=52
0GG	1G	2B-\
.	.	2.d\
.	2.D\	.
.	.	4c\
.	.	2B-\
.	4E-\	.
2FF/	2.F\	2.A/
2DD/	.	.
.	4G\	4G/
=53	=53	=53
1GG	2D\	1B-
.	1G	.
0DD	.	1.A
.	2F#i\	.
.	2.F#i\	.
.	.	2G/
.	4Eni\	.
=54	=54	=54
2r	1G	1G
2GG/	.	.
2AA/	2C/	2r
2BB-/	2D\	2G/
2C/	2r	2A/
2GG/	2D\	2B-\
=55	=55	=55
2r	2C/	1c
2CC/	2E-\	.
2DD/	2F\	2r
2EE-/	2G\	2C/
2FF/	2r	2D/
2EE-/	2C/	2E-/
=56	=56	=56
2DD/	2D\	2F/
1.CC	2.E-\	2.G/
.	4D\	4F/
.	2C/	2E-/
1GG	2.BBni/	1D
.	4AA/	.
=57	=57	=57
1CC	1C	1.C
2C/	0E-	.
2.AA-/	.	1.c
4BB-/	.	.
2C/	.	.
=58	=58	=58
2GG/	0.D	2B-\
2.BB-/	.	2.d\
4AA/	.	4c\
4GG/	.	4Bni\
4FF/	.	4A/
1GG	.	1Bni
=59	=59	=59
2AA/	2C/	1c
1FF	1F	.
.	.	2A/
2.C/	2E-\	1G
.	1C	.
4BB-/	.	.
2AA/	.	2c\
=60	=60	=60
2.GG/	0G	2B-\
.	.	1d
4AA/	.	.
2BB-/	.	.
2C/	.	2e-\
1D	1F	2d\
.	.	4c\
.	.	4B-\
=61	=61	=61
2C/	2E-\	4c\
.	.	4B-\
2D\	2F\	4A/
.	.	4G/
2GG/	2G\	2B-\
4AA/	2F\	2A/
4BB-/	.	.
2C/	2E-\	2G/
2AA/	2C/	[2c\
=62	=62	=62
1GG	1D	2c\]
.	.	2B-\
2CC/	2C/	2.e-\
2.DD/	2.F\	.
.	.	4d\
.	.	2.f\
4EE-/	4E-\	.
[2FF/	4D\	.
.	4C/	4e-\
=63	=63	=63
4FF/]	2F\	4d\
4EE-/	.	4c\
1.CC	2.G\	2.e-\
.	4F\	4d\
.	2E-\	1c
1GG	1D	.
.	.	2Bni\
=64	=64	=64
0.CCl	0.Cl	0.cl
==	==	==
*-	*-	*-
!!!RDF**kern: l=long note in original notation
!!!RDF**kern: i=editorial accidental
!!!RDF**kern: V=start of tuplet marker
!!!RDF**kern: Z=end of tuplet marker
!!!ENC:	Chris Gage 01-09-2015
!!!END:	2015/01/17/
!!!EED:	Jesse Rodin
!!!EEV:	2015/03/09/
!!!ONB:	Translated from MusicXML and edited on 2015/03/09/ by Craig Sapp
!!muse2ps: T^@{OPR}^u^@{ONM}{. }@{OTL}^C^@{COM}^i2I150v95,95,150Q16
